**kern	**kern
*part1	*part1
*staff2	*staff1
*I"Piano	*
*clefF4	*clefG2
*k[b-e-]	*k[b-e-]
=1	=1
2.BBB- 2.BB-	4r
.	4F 4B- 4d
.	4F 4B- 4d
=	=
2CC 2C	4r
.	4F 4A 4e-
4CC#X 4C#X	4G 4B- 4en
=	=
*	*^
2.DD 2.D	2.f	4r
.	.	4F 4B- 4d
.	.	4F 4B- 4d
=	=	=
2.GG 2.G	2.b-	4r
.	.	4d 4g
.	.	4d 4g
=	=	=
2.CC 2.C	2.b-	4r
.	.	4c 4en
.	.	4c 4e
=	=	=
2.GG 2.G	2.b-	4r
.	.	4c 4en
.	.	4c 4e 4b-
=	=	=
2.FF 2.F	2.a	4r
.	.	4c 4f
.	.	4c 4f
*	*v	*v
=	=
(4FF	4f 4a 4ff
4GG	4g 4b- 4een
4AA)	4f 4a 4cc 4ee-X
=	=
*-	*-
!!!system-decoration: {(s1,s2)}
